X:240
T:Paddy O'Rafferty 2  
B:CRE2.011(ii) (PÃÂÃÂÃÂÃÂ¡idÃÂÃÂÃÂÃÂ­n ÃÂÃÂÃÂ¢ÃÂÃÂ Raifeartaigh 2)
F:file ID: cre.2/240paddy_o_2
L:1/8
M:6/8
R:jig
Q:160
K:G
%1
A2|:dBB dAA|dBB AGA|dBB AAA|GBA GED|
"5"dBB A2z|GAB c2e|dBG AGE|GAG GED:|
"9"BBB AAA|BBB AGE|B2z AAA|GBA GED|
"13"B2B AAA|GAB c2e|dBG AGE|GAG GED||
%
"17"GBd GBd|gBd edc|Bc/d/G BdB|GAG GED|
"21"GBd GBd|GBd g2z|edB AAA|GBA GED||
%
"25"|:B2d gdd|edd gdd|Bdd edB|GAG GED|B2d gdd|
"29"edd gfg|edB AAA|1 GBA GEd:|2 GBA GED||
%
"33"|:BBB AAA|BBB AGE|B2z AAA|GBA GED|
"37"Bdd AAA|GAB c2e|dBG AGE|GAG GED:|HG8||

%%%

